X:6
T:Hanter dro de Languidic
R:hanter dro
O:Bretagne
Z:id:hn-hanterdro-6
M:3/4
L:1/8
K:Am
ee/d/ ce A2 | ee/d/ cd eg |
ee/d/ ce A2 | ee/d/ cd e2 :|
|: ee/e/ fe B>c | de/d/ cA/c/ B2 |
ee/e/ fe B>c | de/d/ cB A2 :|

